!!!COM: Gomółka, Mikołaj
!!!CDT: ~1535-after 1591
!!!OTL@POL: Wszechmocny Panie, wiekuisty Boże
!!!OTL@LAT: Domine Dominus noster
!!!AGn: Motet; Psalm
!!!SCn: Gom2008
!!!SCn: Gom2008
!!!voices: 4
**kern	**kern	**kern	**kern
*staff4	*staff3	*staff2	*staff1
*Ivox	*Ivox	*Ivox	*Ivox
*I"Bassus	*I"Tenor	*I"Altus	*I"Cantus
*I'B	*I'T	*I'A	*I'C
*clefF4	*clefGv2	*clefG2	*clefG2
*k[]	*k[]	*k[]	*k[]
*M2/1	*M2/1	*M2/1	*M2/1
*met(C|)	*met(C|)	*met(C|)	*met(C|)
=1-	=1-	=1-	=1-
*M1/1	*M1/1	*M1/1	*M1/1
1G	1B	1d	1g
=2	=2	=2	=2
*M2/1	*M2/1	*M2/1	*M2/1
2E	2B	4e	2g
.	.	4d	.
2E	2B	4e	2g
.	.	4f	.
4C	1e	1g	1cc
4D	.	.	.
4E	.	.	.
4F	.	.	.
=3	=3	=3	=3
2G	2d	2g	2b
1c	1e	1g	1ee
[2A	2e	2a	[2cc
=4	=4	=4	=4
2A]	2e	4a	2cc]
.	.	4g	.
2A	4f	4a	2cc
.	4g	4b	.
4F	2a	1cc	2ff
4G	.	.	.
4A	2a	.	2ff
4B	.	.	.
=5	=5	=5	=5
2c	2g	2cc	2ee
2G	2g	2b	2dd
2F	2a	2.cc	2.ff
2G	[2g	.	.
.	.	4b	4ee
=6	=6	=6	=6
1D	2g]	4a	2.dd
.	.	4g	.
.	2f#i	2a	.
.	.	.	4cc
2G	4g	4b	2b
.	4fni	4a	.
4c	4e	2g	[2ee
4B	4d	.	.
=7	=7	=7	=7
2.A	2e	4cc	4ee]
.	.	4b	4dd
.	2e	1a	4cc
4G	.	.	4b
2F	2.f	.	4a
.	.	.	4b
2C	.	[2g	[2cc
.	4e	.	.
=8	=8	=8	=8
1G	4d	4g]	2cc]
.	4c	4f	.
.	2d	2d	2b
2C	2c	2e	2cc
4r	4r	4r	4r
4c	4e	4g	4cc
=9	=9	=9	=9
2A	2e	2a	2cc
2A	2e	2a	2cc
1d	4f#i	4a	1dd
.	2g	2b	.
.	4f#	4a	.
=10	=10	=10	=10
2G	4g	2b	2dd
.	4f	.	.
2c	4e	4g	2ee
.	4d	4f	.
2c	2c	4e	2ee
.	.	4f	.
2B	2d	2g	2dd
=11	=11	=11	=11
2A	2e	2g	2cc
2A	2c	2f#i	2cc
2G	2d	2g	2b
2E	2g	2b	2ee
=12	=12	=12	=12
2F	2.f	2a	2dd
2F	.	2a	1cc
.	4e	.	.
1G	4d	2.g	.
.	4c	.	.
.	2d	.	2b
.	.	4f	.
=13	=13	=13	=13
0C	0c	0e	0cc
==	==	==	==
*-	*-	*-	*-
!!!CNT: Polish
!!!OCY: Poland
!!!LYR: Jan Kochanowski (1530-1584/08/22)
!!!GTL: Melodiae na Psałterz Polski
!!!EFL: 8/150
!!!PPR: Łazarz Andrysowicz
!!!PPP: Kraków
!!!PDT: 1580
!!!YEC: 2015 Marcin Konik
!!!ENC: Marcin Konik
!!!END: 2015/03/06
!!!EED: Marcin Konik
!!!EEV: 2015/03/06
!!!ONB: Translated from MusicXML and edited on 2015/03/06 by Marcin Konik
!!!CharacterEncoding: utf-8
!!muse2ps: i2I150v85,85,85,150Q16
!!title: @{OTL}, @{GTL}, ed. @{ENC}
